!!!COA:	Josquin des Prez
!!!CDT:	~1450-1521/08/27
!!!OPR:	Missa Rosina
!!!ONM:	2
!!!OTL:	Gloria
!!!AGN:	Mass; Gloria
!!!SCT:	NJE 9.4
!!!SCA:	New Josquin Edition 9.4
!!!voices:	4
!!!voices-OPR:	4
**kern
*staff1
*Ivox
*I"Tenor
*I'T
*>[A,B]
*>A
*clefGv2
*k[]
*M3/1
*met(O.)
!!section: Et in terra
!!!OMD: Et in terra
=1-
1.r
1.r
1.r
=2
1.r
1.r
1.r
=3
[1.E
1.E]
1.G
=4
1.G
1.A
1.c
=5
[1.B
1.B_
1.B]
=6
[1.A
1.A_
1.A]
=7
*M2/1
*met(C)
1r
1G
=8
1.c
2d\
=9
0e;
=10
*M3/1
*met(C.)
0.r
=11
[1.A
1.A]
=12
1.E
1.C
=13
*M2/1
*met(C)
0r
=14
0r
=15
0r
=16
1c
2B\
[2A/
=17
2A/]
2G/
1F
=18
0El
!!LO:LB:i:g=z
=19||
*>B
*clefGv2
*k[]
*M2/2
*met(C)
!!section: Qui sedes
!!!OMD: Qui sedes
1r
=20-
1C
=21
1E
=22-
1A
=23
1G
=24
*M3/1
*met(C.)
2r
1c
1.B
=25
1.e
1.d
=26
*M2/2
*met(C)
2r
2c\
=27-
1B
=28
1A
=29-
1d
=30
2c\
[y2B\
=31-
2B\]yy
2G/
=32
1A
=33-
[y1G
=34
1G]yy
=35
*M3/2
*met(C.)
1.r
=36-
1.c
=37-
1.B
=38-
1.c
=39-
1.G;
=40-
*M1/2
*met(C)
2r
=41-
2F/
=42-
[y2G/
=43-
2G/]yy
=44-
[y2A/
=45-
2A/]yy
=46-
2E/
=47-
*M2/2
*met(C|)
2r
2D/
=48-
1E
=49-
1F
=50-
1C
=51-
1D
=52-
*M2/1
*met(C)
1E
2D/
[y2A/
=53-
2A/]yy
2G/
1F
=54-
0El
==
*-
!!!RDF**kern: l=long note in original notation
!!!RDF**kern: V=start of tuplet marker
!!!RDF**kern: Z=end of tuplet marker
!!!ENC:	Jesse Rodin (May 2013
!!!END:	2013/05/10/
!!!EED:	Jesse Rodin
!!!EEV:	2013/05/13/
!!attribution-level@Jos: 4 (questionable)
!!!ONB:	Translated from MusicXML and edited on 2013/05/13/ by Craig Sapp
!!muse2ps: T^@{OPR}^u^@{ONM}{. }@{OTL}^C^@{COA}?\n@{SCT}^i2I250v150z21c120Q16
